**kern	**kern	**dynam
*part1	*part1	*part1
*staff2	*staff1	*
*I"Piano	*	*
*clefF4	*clefG2	*
*k[b-e-a-]	*k[b-e-a-]	*
=1	=1	=1
4E-	4G 4B- 4e- 4g	.
8r	8r	.
8F 8A-	8d 8b-	.
=	=	=
2G 2B-	2e- 2b-	.
=	=	=
2G	4.e- 4.b- 4.ee-	.
.	8e- 8b- 8dd	.
=	=	=
2A-	4e- 4b- 4dd	.
.	4e- 4a- 4cc	.
=	=	=
4An	4.e- 4.f#X 4.cc	[ [
4AAn	.	.
.	8e- 8f# 8ee-	p
=	=	=
[2BB-	4e- 4g 4ee-	.
.	4e- 4g 4b-	.
=	=	=
4BB-]	4.c 4.e- 4.a-	.
4BB-	.	.
.	8B- 8e- 8g	.
=	=	=
2BB-	4A- 4d 4g	.
.	4A- 4d 4f	.
=	=	=
*-	*-	*-
!!!system-decoration: {(s1,s2)}
